X: 742
T: the Field of Oats
R: reel
%S: s:2 b:14(7+7)
B: Francis O'Neill: "The Dance Music of Ireland" (1907) #742
Z: Frank Nordberg - http://www.musicaviva.com
F: http://www.musicaviva.com/abc/tunes/ireland/oneill-1001/0742/oneill-1001-0742-1.abc
M: C|
L: 1/8
K: Em
BA | GEEF G2(EF) | G2(FG) AcBA |[1 GEEF G2(ef) | gfed B2 :|[2 GFEF GABa | gefd e2 "^B"[| ef | g2bg f2af |
| e2fe Bdef | gabg fgaf | gfed e2 || (ef) | g2bg f2af | e2fe Bdef | gabg f2af | gfed ed |]
